!!!OTL: Am Morgen.
!!!OTL-incipit: ERWACHT IST DER MORGEN
!!!COM: W. Tschirch
!!!ARE: Europa, Mitteleuropa, Deutschland
!!!SCT: F0990
!!!TXL: @@DE
!!!YEM: Copyright 1995, estate of Helmut Schaffrath.
**kern	**text
*ICvox	*
*M2/4	*
*k[f#]	*
*G:	*
!LO:TX:a:t=Heiter.	!
{8d	Er-
=1	=1
4g	-wacht
8g	iſt
8a	der
=2	=2
4b/	Mor-
8g}	-gen
{8a	mit
=3	=3
(8b/L	duf-
8ddJ)	.
8cc/	-ten-
8b/	-dem
=4	=4
4a	Hauch,
8r}	.
{8a	er-
=5	=5
4b/	-wacht
8b/	ſind
8cc#/	im
=6	=6
(8dd/L	Hai-
8eeJ)	.
8ff#/}	-ne
{8ee/	die
=7	=7
(4dd/	Lie-
4cc#/)	.
=8	=8
4dd/	-der.
8r}	.
{8d	Es
=9	=9
4g	weckt
8g	ſie
8a	die
=10	=10
4b/	Son-
8g}	-ne,
{8a	ſie
=11	=11
(8b/L	wel-
8ddJ)	.
8cc/	-ket
8b/	uns
=12	=12
4a	auch,
8r}	.
{8a	drum
=13	=13
4b/	freut
8b/	euch
8cc#/	und
=14	=14
(8dd/L	ſin-
8eeJ)	.
8ff#/}	-get
{8ee/	ihr
=15	=15
(4dd/	Brü-
4cc#)	.
=16	=16
4dd/	-der.
8r}	.
{8dd/	Wir
=17	=17
(8dd/L	ju-
8aJ)	.
8a	-beln
8a	und
=18	=18
4b/	ſin-
8g}	-gen
{8b/	aus
=19	=19
(8dd/L	fröh-
8aJ)	.
8a	-li-
8cc	-cher
=20	=20
4b/	Brust,
8r}	.
{8b/	und
=21	=21
4b/	freu'n
8cc/	uns
8dd/	des
=22	=22
(8ee/L	Le-
8ggJ)	.
8ee/}	-bens
{8cc/	und
=23	=23
(8b/L	freu'n
8ddJ)	.
8cc/	uns
8a	der
=24	=24
4g	Luſt,
8r}	.
!LO:TX:a:t=Alle.	!
{8b/	wir
=25	=25
(8dd/L	ju-
8aJ)	.
8a	-beln
8cc/	und
=26	=26
4b/	ſin-
8g}	-gen
{8b/	aus
=27	=27
(8dd/L	fröh-
8aJ)	.
8a	-li-
8cc/	-cher
=28	=28
4b/	Bruſt,
8r}	.
{8b/	und
=29	=29
4b/	freu'n
8cc/	uns
8dd/	des
=30	=30
(8ee/L	Le-
8ggJ)	.
8ee/}	-bens
{8cc/	und
=31	=31
(8b/L	freun
8ddJ)	.
8cc/	uns
8a	der
=32	=32
4g	Luſt.
8r}	.
==	==
!!!AGN: Natur -, Tageszeiten - Lied, Morgen
!!!ONB: ESAC (Essen Associative Code) Database: FINK
!!!AMT: simple duple
!!!AIN: vox
!!!EED: Helmut Schaffrath
!!!EEV: 1.0
!!Text: G. Geibel?
!!!GTL: Lieder um Preise der Natur.
!!!source: Musikalischer Hausschatz der Deutschen. Eine Sammlung von über 1000 Liedern und Gesängen mit Singstimmen und Klavierbegleitung. Leipzig, Litterarisches Verlags-Haus.
!!!page: 746
!!!ENC: Anna Maria Matuszewska
!!!EEV: 2025/03/20
*-	*-
